_includes/icons/ios-edit-file.svg

<svg fill="#666" height="50" viewBox="0 0 50 50" width="50" xmlns="http://www.w3.org/2000/svg"><path d="m4 0v48h17c.359375.003906.695313-.183594.878906-.496094.179688-.3125.179688-.695312 0-1.007812-.183593-.3125-.519531-.5-.878906-.496094h-15v-44h18v14h14v11c-.003906.359375.183594.695313.496094.878906.3125.179688.695312.179688 1.007812 0 .3125-.183593.5-.519531.496094-.878906v-12.40625l-.28125-.3125-14-14-.3125-.28125zm22 3.4375 10.5625 10.5625h-10.5625zm19.90625 21.46875c-1.050781 0-2.105469.386719-2.90625 1.1875l-.6875.71875.03125.03125-15.4375 15.4375c-.128906.117188-.226562.269531-.28125.4375l-1.6875 6c-.101562.347656-.011719.722656.242188.984375.253906.257813.625.359375.976562.265625l6-1.59375c.167969-.054687.320313-.152344.4375-.28125l15.8125-15.6875c.125-.109375.222656-.25.28125-.40625l.125-.09375c1.601563-1.601562 1.601563-4.210937 0-5.8125-.800781-.800781-1.855469-1.1875-2.90625-1.1875zm-2.15625 3.34375 3 3-15.34375 15.25-2.9375-2.84375.03125-.125z"/></svg>

<svg xmlns="http://www.w3.org/2000/svg" viewBox="0 0 50 50" width="50" height="50" fill="#666"><path d="M 4 0 L 4 48 L 21 48 C 21.359375 48.003906 21.695313 47.816406 21.878906 47.503906 C 22.058594 47.191406 22.058594 46.808594 21.878906 46.496094 C 21.695313 46.183594 21.359375 45.996094 21 46 L 6 46 L 6 2 L 24 2 L 24 16 L 38 16 L 38 27 C 37.996094 27.359375 38.183594 27.695313 38.496094 27.878906 C 38.808594 28.058594 39.191406 28.058594 39.503906 27.878906 C 39.816406 27.695313 40.003906 27.359375 40 27 L 40 14.59375 L 39.71875 14.28125 L 25.71875 0.28125 L 25.40625 0 Z M 26 3.4375 L 36.5625 14 L 26 14 Z M 45.90625 24.90625 C 44.855469 24.90625 43.800781 25.292969 43 26.09375 L 42.3125 26.8125 L 42.34375 26.84375 L 26.90625 42.28125 C 26.777344 42.398438 26.679688 42.550781 26.625 42.71875 L 24.9375 48.71875 C 24.835938 49.066406 24.925781 49.441406 25.179688 49.703125 C 25.433594 49.960938 25.804688 50.0625 26.15625 49.96875 L 32.15625 48.375 C 32.324219 48.320313 32.476563 48.222656 32.59375 48.09375 L 48.40625 32.40625 C 48.53125 32.296875 48.628906 32.15625 48.6875 32 L 48.8125 31.90625 C 50.414063 30.304688 50.414063 27.695313 48.8125 26.09375 C 48.011719 25.292969 46.957031 24.90625 45.90625 24.90625 Z M 43.75 28.25 L 46.75 31.25 L 31.40625 46.5 L 28.46875 43.65625 L 28.5 43.53125 Z"/></svg>
